{ "compressionlevel":-1,
 "height":1,
 "infinite":true,
 "layers":[
        {
         "id":7,
         "layers":[],
         "name":"Bottom",
         "opacity":1,
         "type":"group",
         "visible":true,
         "x":0,
         "y":0
        }, 
        {
         "id":8,
         "layers":[],
         "name":"Top",
         "opacity":1,
         "type":"group",
         "visible":true,
         "x":0,
         "y":0
        }, 
        {
         "draworder":"topdown",
         "id":2,
         "name":"LevelBoundary",
         "objects":[
                {
                 "height":0,
                 "id":1,
                 "name":"LevelBounds",
                 "opacity":1,
                 "polygon":[
                        {
                         "x":-91.6254496402879,
                         "y":-767.333333333333
                        }, 
                        {
                         "x":1100.04121702638,
                         "y":-768
                        }, 
                        {
                         "x":1098.70166366907,
                         "y":999
                        }, 
                        {
                         "x":-90.8217176258994,
                         "y":999.66666666667
                        }],
                 "rotation":0,
                 "type":"",
                 "visible":true,
                 "width":0,
                 "x":8.79211630695477,
                 "y":110.166666666667
                }],
         "opacity":1,
         "type":"objectgroup",
         "visible":true,
         "x":0,
         "y":0
        }, 
        {
         "draworder":"topdown",
         "id":3,
         "name":"Blockers",
         "objects":[],
         "opacity":1,
         "type":"objectgroup",
         "visible":true,
         "x":0,
         "y":0
        }, 
        {
         "draworder":"topdown",
         "id":4,
         "name":"MovementBlockers",
         "objects":[],
         "opacity":1,
         "type":"objectgroup",
         "visible":true,
         "x":0,
         "y":0
        }, 
        {
         "draworder":"topdown",
         "id":14,
         "name":"EffectRegions",
         "objects":[],
         "opacity":1,
         "type":"objectgroup",
         "visible":true,
         "x":0,
         "y":0
        }, 
        {
         "draworder":"topdown",
         "id":25,
         "name":"Npcs",
         "objects":[],
         "opacity":1,
         "type":"objectgroup",
         "visible":true,
         "x":0,
         "y":0
        }, 
        {
         "draworder":"topdown",
         "id":33,
         "name":"Doors",
         "objects":[],
         "opacity":1,
         "type":"objectgroup",
         "visible":true,
         "x":0,
         "y":0
        }, 
        {
         "draworder":"topdown",
         "id":37,
         "name":"Windows",
         "objects":[],
         "opacity":1,
         "type":"objectgroup",
         "visible":true,
         "x":0,
         "y":0
        }, 
        {
         "draworder":"topdown",
         "id":42,
         "name":"Triggers",
         "objects":[],
         "opacity":1,
         "type":"objectgroup",
         "visible":true,
         "x":0,
         "y":0
        }, 
        {
         "draworder":"topdown",
         "id":43,
         "name":"SoundEmitters",
         "objects":[],
         "opacity":1,
         "type":"objectgroup",
         "visible":true,
         "x":0,
         "y":0
        }, 
        {
         "draworder":"topdown",
         "id":11,
         "name":"Spawns",
         "objects":[
                {
                 "height":0,
                 "id":31,
                 "name":"default",
                 "opacity":1,
                 "point":true,
                 "properties":[
                        {
                         "name":"orientation",
                         "type":"float",
                         "value":0
                        }],
                 "rotation":0,
                 "type":"",
                 "visible":true,
                 "width":0,
                 "x":861.333333333333,
                 "y":70
                }],
         "offsetx":-68,
         "offsety":940,
         "opacity":1,
         "type":"objectgroup",
         "visible":true,
         "x":0,
         "y":0
        }, 
        {
         "draworder":"topdown",
         "id":87,
         "name":"Props",
         "objects":[],
         "opacity":1,
         "type":"objectgroup",
         "visible":true,
         "x":0,
         "y":0
        }, 
        {
         "draworder":"topdown",
         "id":88,
         "name":"Items",
         "objects":[],
         "opacity":1,
         "type":"objectgroup",
         "visible":true,
         "x":0,
         "y":0
        }],
 "nextlayerid":143,
 "nextobjectid":271,
 "orientation":"orthogonal",
 "renderorder":"right-down",
 "tiledversion":"1.12.1",
 "tileheight":360,
 "tilesets":[],
 "tilewidth":640,
 "type":"map",
 "version":"1.10",
 "width":1
}